X: 8681
T: Crossing The Shannon
R: reel
M: 4/4
K: Dmajor
|:FG|A~d3 AGFG|A~d3 fdec|A~d3 ~A3B|AGFG E2FG|
A~d3 AGFG|A~d3 fdec|Adfa gefa|gece d2:|
|:FG|A~d3 fage|fage fdBd|A~d3 ~A3B|AGFG E2FG|
A~d3 fage|fage fdBd|Adfa gefa|gece d2:|

